X: 458
T: The broken pledge
C:anon.
O:Ireland
B:Francis O'Neill: "The Dance Music of Ireland" (1907) no. 458
R:Reel
Z:Transcribed by Frank Nordberg - http://www.musicaviva.com
F:http://www.musicaviva.com/abc/tunes/ireland/oneill-1001/oneill-1001-045
8.abc
m:Mn = (3n/o/n/
M:C|
L:1/8
K:D
d2|dcAG AD (3DDD|cAGF ECCE|DEFG Addc|ABGB Adfe|dcAG A2(dB)|(3cBA GF (EC)C
E|DEFG Addc|(3ABA GE EDD2||
||d2|({e}d)cAG A2(de)|fefd ecAB|({d}c)AGE GAcd|(3efg df ecAc|dcAG A2(de)|
fefd ecAG|(MFE) Addc|AcGE ({F}E)D D2|]
W:
W:
W:  From Musica Viva - http://www.musicaviva.com
W:  the Internet center for free sheet music downloads.


